X:1
T:Title
%%score { ( 1 3 5 ) | ( 2 4 6 ) }
L:1/8
M:4/4
K:G
V:1 treble nm="Grand Piano"
V:3 treble 
V:5 treble 
V:2 bass 
V:4 bass 
V:6 bass 
V:1
 z4 z2[Q:1/4=100] D2 | B2 B2 G>G F>G | A2 A2 E3 A | F2 A2 A>A F>E | [B,E]2 [B,D]2 [DB]3 D | %5
 B2 B2 G>G F>G | A2 A2 E3 E | [^CA]2 [CA]2 [DA]>[DB] [CA]>[CG] |[M:7/8] F2 G2 A3 | %9
[M:11/32] c/4-c/4-c/4-c/4-c/4-c/4-c/-<c/ z/4 |[M:4/4] (3:2:2A3 A3 z4 | d6- d/4 z/4 z/ z | %12
 (3:2:2G3 G3 z4 | d6- d/4 z/4 z/ z | z4 (5:4:5[Ec]2- [Ec]/ [Ge]/-[Ge]3/2[Ge]/ | %15
[M:9/8] z3 z E2- E-[EG-e-]/<[Ge]/-[Ge] | %16
[M:4/4] (9:8:8[Gd] [DGB]2- [DGB]/[CFA] [B,DG][CDA][DGB]/- [DGB]2 | %17
[M:7/8] [CFA]-[CFA]- [CFA]2- [CFA]/4 z/4 z/ z2 |] %18
V:2
 z4 z2 [G,B,]2 | [G,D]2 [G,D]2 [G,B,]>[G,B,] [G,B,]>[G,B,] | [C,E,C]2 [C,E,C]2 [C,G,C]3 [C,E,C] | %3
 [D,A,C]2 [D,G,C]2 [D,F,C]>[D,F,C] [D,A,C]>[D,F,C] | [G,,G,]2 [G,,G,]2 [G,,G,]3 [G,B,] | %5
 [G,D]2 [G,D]2 [G,B,]>[G,B,] [G,B,]>[G,B,] | [C,E,C]2 [C,E,C]2 [C,G,C]3 [C,G,C] | %7
 [A,,G,]2 [A,,G,]2 [A,,F,]>[A,,F,] [A,,E,]>[A,,A,] |[M:7/8] [D,A,D]2 [E,A,^C]2 [F,A,D]3 | %9
[M:11/32] E/4-E/4-E/4-E/4-E/-<E/-[D,-F,-D-E]/[D,F,D]/4 |[M:4/4] (3:2:2[D,F,C]3 [D,F,C]3 z4 | %11
 D2- [E,D]2- [E,D-]/<D/-D- D/4 z/4 z/ z | (3:2:2[G,B,D]3 [G,B,D]3 z4 | %13
 D2- [A,D]2- [A,D]/4 z/4 z/ z z2 | (3:2:2[C,G,]3 [C,C]3 z4 | %15
[M:9/8] z2 [G,B,]- [G,B,]-[G,B,]/4 z/4 z/ z z3 |[M:4/4] (9:8:8[D,B,] D,2- D,/D, D,D,D,/- D,2 | %17
[M:7/8] z z z2 G,3 |] %18
V:3
 x8 | x8 | x8 | x8 | x8 | x8 | x8 | x8 |[M:7/8] x7 |[M:11/32] z/4 z/4 z/4 z/4 z/4 z/4 z/ B3/4 | %10
[M:4/4] z4 (5:4:5A2- A/ ^G/-G3/2A/ | z4 (5:4:5A,2- A,/ B/-B3/2A/ | z4 (5:4:5G2- G/ F/-F3/2G/ | %13
 z4 (5:4:5G2- G/ [B,D]/-[B,D]3/2[B,D]/ | (3:2:2[CE]3 [EG]3 z4 | %15
[M:9/8] [Gd]2- [Gd]/4 z/4 z/ z G2- G z z |[M:4/4] x8 |[M:7/8] z z z2 [B,G]3 |] %18
V:4
 x8 | x8 | x8 | x8 | x8 | x8 | x8 | x8 |[M:7/8] x7 | %9
[M:11/32] [D,F,]/4-[D,F,]/4-[D,F,]/4-[D,F,]/4-[D,F,]/-<[D,F,]/ z/4 z/ | %10
[M:4/4] z4 (5:4:5[D,F,C]2- [D,F,C]/ [D,=F,B,]/-[D,F,B,]3/2[D,^F,C]/ | %11
 [D,F,]2- [D,F,]/4 z/4 z/ z (5:4:5F,2- F,/ [D,F,D]/-[D,F,D]3/2[D,CD]/ | %12
 z4 (5:4:5[G,B,D]2- [G,B,D]/ [A,CD]/-[A,CD]3/2[G,B,D]/ | %13
 [G,B,]2- [G,B,]/4 z/4 z/ z (5:4:5[B,D]2- [B,D]/ [G,,G,]/-[G,,G,]3/2[G,,G,]/ | %14
 z4 (5:4:5[C,G,]2- [C,G,]/ [C,C]/-[C,C]3/2[C,C]/ |[M:9/8] .[G,B,]3 z3 z [^C,_B,]2 |[M:4/4] x8 | %17
[M:7/8] D,-D,- D,2- D,/4 z/4 z/ z2 |] %18
V:5
 x8 | x8 | x8 | x8 | x8 | x8 | x8 | x8 |[M:7/8] x7 |[M:11/32] x11/4 |[M:4/4] x8 | %11
 z2 G,2- G,/4 z/4 z/ z z2 | x8 | z2 C2- C/4 z/4 z/ z z2 | x8 | %15
[M:9/8] z2 [DB]- [DB]-[DB]/4 z/4 z/ z z3 |[M:4/4] x8 |[M:7/8] x7 |] %18
V:6
 x8 | x8 | x8 | x8 | x8 | x8 | x8 | x8 |[M:7/8] x7 |[M:11/32] x11/4 |[M:4/4] x8 | x8 | x8 | x8 | %14
 x8 |[M:9/8] z3 z [C,C]2- [C,C]-[C,C]/4 z/4 z/ z |[M:4/4] x8 |[M:7/8] x7 |] %18

